ChromiumBasedEditors/plugins/ai-agent/src/assets/formats/documents.svg

<svg width="24" height="24" viewBox="0 0 24 24" fill="none" xmlns="http://www.w3.org/2000/svg">
<path d="M2 4C2 2.89543 2.89543 2 4 2H20C21.1046 2 22 2.89543 22 4V20C22 21.1046 21.1046 22 20 22H4C2.89543 22 2 21.1046 2 20V4Z" fill="#2D8DBF"/>
<mask id="path-2-inside-1_2778_34643" fill="white">
<path d="M6 8C6 7.44772 6.44772 7 7 7H17C17.5523 7 18 7.44772 18 8C18 8.55228 17.5523 9 17 9H7C6.44772 9 6 8.55228 6 8Z"/>
</mask>
<path d="M17 9V7H7V9V11H17V9ZM7 7V9H17V7V5H7V7ZM17 7V9C16.4477 9 16 8.55228 16 8H18H20C20 6.34315 18.6569 5 17 5V7ZM7 9V7C7.55229 7 8 7.44772 8 8H6H4C4 9.65685 5.34314 11 7 11V9ZM17 9V11C18.6569 11 20 9.65685 20 8H18H16C16 7.44772 16.4477 7 17 7V9ZM6 8H8C8 8.55228 7.55228 9 7 9V7V5C5.34315 5 4 6.34315 4 8H6Z" fill="white" mask="url(#path-2-inside-1_2778_34643)"/>
<mask id="path-4-inside-2_2778_34643" fill="white">
<path d="M6 16C6 15.4477 6.44772 15 7 15H13C13.5523 15 14 15.4477 14 16C14 16.5523 13.5523 17 13 17H7C6.44772 17 6 16.5523 6 16Z"/>
</mask>
<path d="M13 17V15H7V17V19H13V17ZM7 15V17H13V15V13H7V15ZM13 15V17C12.4477 17 12 16.5523 12 16H14H16C16 14.3431 14.6569 13 13 13V15ZM7 17V15C7.55228 15 8 15.4477 8 16H6H4C4 17.6569 5.34315 19 7 19V17ZM13 17V19C14.6569 19 16 17.6569 16 16H14H12C12 15.4477 12.4477 15 13 15V17ZM6 16H8C8 16.5523 7.55228 17 7 17V15V13C5.34315 13 4 14.3431 4 16H6Z" fill="white" mask="url(#path-4-inside-2_2778_34643)"/>
<mask id="path-6-inside-3_2778_34643" fill="white">
<path d="M6 12C6 11.4477 6.44772 11 7 11H17C17.5523 11 18 11.4477 18 12C18 12.5523 17.5523 13 17 13H7C6.44772 13 6 12.5523 6 12Z"/>
</mask>
<path d="M17 13V11H7V13V15H17V13ZM7 11V13H17V11V9H7V11ZM17 11V13C16.4477 13 16 12.5523 16 12H18H20C20 10.3431 18.6569 9 17 9V11ZM7 13V11C7.55229 11 8 11.4477 8 12H6H4C4 13.6569 5.34314 15 7 15V13ZM17 13V15C18.6569 15 20 13.6569 20 12H18H16C16 11.4477 16.4477 11 17 11V13ZM6 12H8C8 12.5523 7.55228 13 7 13V11V9C5.34315 9 4 10.3431 4 12H6Z" fill="white" mask="url(#path-6-inside-3_2778_34643)"/>
</svg>

<svg xmlns="http://www.w3.org/2000/svg" width="24" height="24" fill="none" viewBox="0 0 24 24">
    <path fill="#287ca9" d="M2 4a2 2 0 0 1 2-2h16a2 2 0 0 1 2 2v16a2 2 0 0 1-2 2H4a2 2 0 0 1-2-2z"/>
    <path fill="#fff" d="M13 15a1 1 0 1 1 0 2H7a1 1 0 1 1 0-2zm4-4a1 1 0 1 1 0 2H7l-.103-.005A1 1 0 0 1 7 11zm0-4a1 1 0 1 1 0 2H7l-.103-.005A1 1 0 0 1 7 7z"/>
</svg>
